X: 27
M:C|
L:1/8
K:D
u((3GFE)|\
((3Bcd) ((3efg) (fd) d z |
((3Bcd) ((3efg) (fd) d :|
|:uA|\
d2f2 gefd | B2 (ed) cABc | d2f2 gefd | ((3Bcd)((3efg) (fd) d2 |
d2f2 gefd | B2 (ed) cABg | ((3fgf)((3edc) ((3dcB)((3AGF) | \
((3Bcd)((3efg) (fd) d :|


